X: 299
T:Old Red Barn
L:1/8
R:Jig
Z:Alf Warnock - alf0@rogers.com
M:6/8
K:G
D|"G"G,B,D .G2B|"D7"AGF "G".G2B|ded "Am"cBA|"D7"GFE DB,A,|
"G"G,B,D .G2B|"D7"AGF "G".G2B|ded "D"cBA|"G"G3G2:|
|:d|"G"gag "D"fgf|"C"efe "G".d2B|"D7"cAF DFA|"G"edB .G2d|
"G"gag "D"fgf|"C"efe "G".d2B|"D7"cAF DEF|"G"G3 .G2:|
